X:4
T:Angeline The Baker
S:Stephen Foster
O:America
R:Old Time
M:4/4
L:1/8
K:D
dB|:A2B2 d3 A|B2 d4 dB|A2 B2 d2 f2 |B6 dB|
  |A2B2 d3 e|f2e2 d3 e |f2e2 d2B2|1 A6 dB:|2 A6 fg |
  |:a2f2 e2 de|f2e2 d2 fg|a2f2 e2d2|B6 fg|
  |a2f2 e2 de|f2e2 d2 de|f2e2 d2B2|1 A6 fg:|2 A6 dB|
